X: 9810
T: Denis Murphy's
R: slide
M: 12/8
K: Dmajor
|:A2 D FED F2 A A2 f|g2 e f2 d e2 d Bcd|
A2 D FED F2 A A2 f|1 a2 f efe d2 d dcB:|2 a2 f efe d3 d2||
|:A|d2 e f2 f gfe f2 f|gfe fed e2 d B2 A|
d2 e f2 f gfe f2 g|1 a2 f efe d3 d2:|2 a2 f efe d3 d3||

